X:54
T:The Weaver and His Wife
Z:Jack Campin, http://www.campin.me.uk/
F:Jack Campin's Nine-Note Tunebook
% last edit 03-02-2013
C:Andrew Rankine
M:6/8
L:1/8
Q:3/8=120
K:G %Transposed from A
B|D3  DGA|B3  G3|B3  G2B|dcB A3 |
  D2D DAB|c3  A3|D2d cBA|G3- G2:|
B|DGB d3 |DGd B3|DGB dcB|c3  A2
B|cdc AcA|F3  E3|D2d cBA|G3- G2:|

